X:1
T:"Chiefly from the book of Isaiah"
T:B minor Oliver Holden, 1800
T:The sound of the harp ceaseth A funeral anthem Commemoration of the death of George Washington No copyright. Transcribed from Sacred Dirges, 1800.
%%score [ 1 2 3 ]
L:1/8
M:4/4
K:D
V:1 treble nm="Treble" snm="Tr."
V:2 treble-8 nm="Tenor" snm="T."
V:3 bass nm="Bass" snm="B."
V:1
 B2 | B^ABc d2 c2 | BFEF !fermata!C2 B,2 | z4 z2 D2 | FDAd cedc | (!fermata!B2 !fermata!A2) z2 B2 | %6
w: |||||* * Nought|
 F2 !fermata!A2 z2 d2 | B2 !fermata!c2 D2 E2 | F2 D2 F>E FB | F2 d2 c>B ^A2 | B4 z4 | z8 | z8 | %13
w: but sighs, Nought|but sighs, Nought but|sighs and plain- * tive *|notes * * * *||||
 z8 | z2 f2 e2 d2 | (d2 !fermata!c2) d2 c2 | B2 (c2 d2 e2 | f4) F2 c2 | B4 z4 | z8 | z8 | z8 | z8 | %23
w: ||||||||||
 z8 | z8 | z8 | z8 | z8 | z8 | z8 | z2 F2 E2 A2 | c2 d2 e2 !fermata!A2 |: d2 cB ^A2 B2 | %33
w: |||||||And he said,|what shall I cry?||
 f2 e2 d>c de | !fermata!d2 B2 B>B ed | c3 c B4 :| z8 | z8 | z8 | z4 z2 A2 | A2 d2 B>^A B2 | %41
w: ||||||||
 F2 D2 C4 | B,2 B,2 z2 D2 | F>E F^A B2 F2 | Fd c2 B2 ^A2 | B>c B4 z2 | z8 | z8 | z8 | z8 | %50
w: |||||||||
 z2 D2 E2 F2 | G2 FA d3 d | ed cd BA GF | E2 E2 !fermata!D2 B>^A | BF DE Fd c>B | (B ^A3) z2 A>A | %56
w: ||||||
 Bd c>e d>f f/e/ d/c/ | B2 B2 c2 d>B | c2 B2 ^A2 B2 | !fermata!c2 z2 (B2 ^A2) | B4 z4 | z8 | z8 | %63
w: |||||||
 z8 | z4 B2 d2 | c4 B3 d | BG EG F3 A | AF D2 G2 F2 | !fermata!E2 A2 Bc d2 | c2 e2 d2 c>B | %70
w: ||* And the|prai- * ses, * and the|prai- * ses of the|Lord, * * * *||
 cBA^G A2 A2 |: z8 | z8 | z4 G2 A2 | B2 c2 d2 d2 | e2 d2 c2 e2 | d2 d2 z2 A2 | d2 B/c/d A2 F2 | %78
w: ||||||||
 B>^A Bd cB z2 | D2 E2 F2 A2 | B2 c2 d>e d2 | d2 e2 c3 e | d2 c2 d4 :| A2 B2 A3 d | A2 G2 G2 F2 | %85
w: |||||In His love and|in His pi- ty|
 D2 E2 F>A ^G2 | c2 e2 A2 ^G2 | A4 c2 A2 | c3 e c2 z2 | d2 A2 d3 e | d4 f2 e2 | d2 c2 d4 | %92
w: he re- dee- med them|in the days of|old. * *|||||
 z4 z2 A>G | F2 G2 A2 D2 | G2 F2 E2 F2 | G2 F2 B2 cd | e3 c A2 z2 | c2 B2 A2 ^G2 | A4 z2 F>E | %99
w: Let *|not the wise man|glo- ry in his|wis- dom; nei- ther the|migh- ty man|glo- ry in his|might. Let *|
 D2 E2 F2 F2 | E2 D2 C2 D2 | E2 D2 G2 F2 | A2 A2 c>B A2 | d2 c2 B2 !fermata!A2 | z8 | z8 | z8 | %107
w: not the rich man|glo- ry in his|rich- es; but let|him that glo- ri- eth,|glo- ry in this:||||
 z8 | z8 | d2 d2 c2 d>d | f2 e2 c4 | d4 z4 ||"^Chorus" z4 z2 A2 | d2 f2 BA B2 | d2 F2 E2 G2 | %115
w: ||judg- ment and right- eous-|ness * *|||||
 F>E F>G A2 e2 | d2 cB !fermata!c2 z2 |: c2 A>A d2 A2 | D2 E2 F3 F | G2 A2 d2 f2 | d2 c2 d4 :| %121
w: ||||||
V:2
 F2 | F4 B2 ^A2 | BdcB !fermata!^A2 B2 | z4 z2 F2 | FA FA A2 Bc | (!fermata!d2 !fermata!c2) z4 | %6
w: The|sound of the|harp~ _ _ _ ceas- eth:|The|voice * of * mirth is no|more. *|
 z8 | z4 A2 A2 | d2 z2 z4 | z2 B2 ^A>B c2 | B4 z2 D2 | F2 FD d2 c>d | B2 F2 z2 DE | %13
w: |Nought but|sighs,|as- sail * the|ear. O|that my * head were *|wa- ters, And mine|
 F2 Bc/d/ F>D F^A | !fermata!B2 d2 c2 B2 | (B2 !fermata!^A2) f2 e2 | d2 (c2 B2 c2 | d4) B2 ^A2 | %18
w: eyes a * * foun- * tain of|tears. That I might|weep,~ _ That I|might weep~ _ _|_ day and|
 B4 z4 | z8 | z8 | z8 | z4 z2 c2 | d2 cB e2 ^d2 | !fermata!e2 z E A2 ^G2 | A4 z2 A2 | %26
w: night.||||To|cut off the migh- ty|man, the man of|war, the|
 d>A Ad c>e d/B/ A/G/ | F2 E2 D4 | z8 | z8 | z8 | z8 |: f2 ed c2 d2 | d2 c2 B>A AA | %34
w: hon- or- a- ble man, * and * the *|coun- se- lor.|||||All flesh is grass, and|all the good- li- ness there-|
 !fermata!A2 d2 B>B cB | ^A3 A B4 :| z2 A2 A3 d | BA GF E2 EE | FG BG F2 E2 | D2 D2 z2 d2 | %40
w: of is as the flower *|of the field.|I clothe the|heavens * with * black- ness, and|make * sack- * cloth their|cover- ing. Be-|
 d2 A2 d>c d2 | B2 B2 ^A4 | B2 B2 z2 B2 | B2 Bc d2 d2 | B2 e2 d2 c2 | B>^A B4 z2 | z8 | z8 | z8 | %49
w: hold, He bring- * eth|prin- ces to|no- thing, He|mak- eth the jud- ges|of the earth as|va- ni- ty.||||
 z8 | z2 D2 E2 F2 | G2 FA d3 d | ed cd BA GF | A2 G2 !fermata!F2 d>c | dB Fd dB ^A>B | %55
w: |Lift up your|eyes to the heav'ns, and|look * up- * on * the *|earth be- neath; For the|heav'ns * shall * va- * nish a-|
 (d c3) z2 c>c | df e2 f2 d/c/ B/^A/ | B2 B2 ^A2 B>B | ^A2 B2 c2 B2 | !fermata!^A2 z2 (d2 c2) | %60
w: way;~ _ And the|earth shall wax old like * a *|gar- ment, and they that|dwell there- in shall|die, shall~ _|
 B4 z4 | F3 B B>A GF | EFGE A>G F2 | z2 A2 EdcB | e>c A2 ^G>B AG | A4 z4 | z8 | z4 A2 A2 | %68
w: die.|I will men- * tion the|lov- * * ing kind- nes- ses,|the lov- * * ing|kind- nes- ses of * the *|Lord.|||
 !fermata!A2 c2 de A2 | A2 c2 df e>d | edcd c2 c2 |: z8 | z8 | z4 d2 d2 | d2 e2 d2 d2 | %75
w: * ac- cor- ding to|all that He * hath be-|stow- * ed up- on us.|||So He|was their Sav- ior,|
 c2 A2 e2 e2 | f2 f2 z2 A2 | d2 B/c/d A2 F2 | d>c df ed z2 | D2 E2 F2 A2 | d2 e2 A2 A2 | %81
w: So He was their|Sav- ior. In|all their * af- flic- tion|He * was af- flic- ted,|And the an- gel,|and the an- gel|
 A2 d2 e3 c | A2 G2 F4 :| z8 | z8 | z8 | z8 | z4 A2 c2 | e3 c A2 z2 | A2 d2 A3 A | A4 d2 d2 | %91
w: of His pre- sence|sav- ed them.|||||He re-|dee- med them,|He re- dee- med|them in the|
 A2 G2 F4 | z4 z2 F>E | D2 E2 F2 F2 | E2 D2 C2 D2 | E2 D2 G2 AB | c3 A A2 z2 | A2 d2 c2 d2 | %98
w: days of old.|||||||
 c4 z2 A>G | F2 G2 A2 D2 | G2 F2 E2 F2 | G2 F2 B2 A2 | c2 e2 A>^G A2 | B2 A2 ^G2 !fermata!A2 | %104
w: ||||||
 d2 c2 B2 A2 | G2 FG A2 ^A2 | !fermata!B2 z2 z4 | z8 | d2 d2 c2 A2 | z8 | z2 [Gd]2 [Ge]4 | %111
w: That he un- der-|stand- eth and know- eth|me,||lov- ing- kind- ness,||in the|
 [Fd]4 z4 || z4 z2 d2 | A2 d2 d2 d2 | A2 A2 A2 A2 | A>G A>B c2 c2 | d2 e2 !fermata!e2 z2 |: %117
w: earth.|Then|while we min- gle|dust to dust, To|one * su- * preme- ly|good and wise,|
 A2 c>c d2 d2 | d2 e2 f3 A | A2 d2 f2 d2 | f2 e2 d4 :| %121
w: Raise Hal- le- lu- jas,|God is just, And|man most hap- py|when he dies.|
V:3
 B,,2 | F,4 F,2 F,2 | (B,2 ^A,B,) !fermata!F,2 B,,2 | z4 z2 D,2 | D,2 D,2 E,2 F,F, | %5
w: |||||
 !fermata!F,4 z4 | z4 z2 B,2 | B,,2 !fermata!F,2 D,2 C,2 | D,2 z2 z4 | z2 F,2 F,2 F,2 | B,,4 z4 | %11
w: |Nought|but sighs, Nought but|sighs,|||
 z8 | z8 | z8 | z2 B,2 ^A,2 B,2 | F,4 B,2 ^A,2 | B,2 (F,4 E,2 | D,4) F,2 F,2 | B,,4 z2 F,2 | %19
w: |||||||* For|
 G,2 F,E, D,E,F,G, | A,2 A,,2 D,2 B,,2 | ^A,,B,, C,2 D,2 E,2 | F,2 F,,2 B,,2 z2 | z8 | z8 | z8 | %26
w: death has come up in- to our|win- dows, And has|en- tered in- to our|pa- la- ces,||||
 z8 | z8 | z4 z2 D,2 | F,2 B,>^A, (B,2 !fermata![F,A,]2) | z8 | z8 |: B,2 ^A,B, F,2 B,,2 | %33
w: ||The|voice said, * cry,~ _||||
 B,,2 C,2 D,>E, F,A, | !fermata!D,2 F,2 B,>B, ^A,B, | F,3 F, B,,4 :| z2 D,2 D,3 D, | %37
w: ||||
 G,F, E,D, A,,2 A,,A,, | D,E, G,G,, A,,2 A,,2 | D,2 D,2 z2 D,2 | D,2 D,2 F,2 F,2 | B,,2 B,,2 F,,4 | %42
w: |||||
 B,,2 B,,2 z2 B,,2 | B,,2 B,,F, B,2 B,,2 | B,,2 ^A,,2 B,,2 F,2 | F,>F, B,,4 z2 | %46
w: ||||
 B,2 ^A,B, C2 C,C, | F,2 F,E, D,2 B,,2 | C,2 D,E, F,2 F,,F,, | B,,8 | z2 D,2 E,2 F,2 | %51
w: Thou tur- nest man to de-|struc- tion, and sayest, Re-|turn, ye * chil- dren of|men.||
 G,2 F,A, D3 D | ED CD B,A, G,F, | G,2 A,2 !fermata!D,2 F,>F, | F,2 F,2 F,2 F,>F, | F,4 z2 F,>F, | %56
w: |||||
 B,B, ^A,2 B,2 F,F, | B,,2 B,,2 F,2 F,>F, | F,2 B,,2 F,2 F,2 | !fermata!F,2 z2 F,4 | B,,4 z4 | z8 | %62
w: ||||||
 z8 | z8 | z4 E,2 E,2 | A,,4 G,,3 G,, | G,,2 A,,2 D,3 D, | D,2 D,2 C,2 D,2 | %68
w: |||* And the|prai- ses, and the|prai- ses of the|
 !fermata!A,,2 A,,2 D,E, F,2 | A,2 A,2 F,2 E,>E, | E,2 E,E, A,,2 A,,2 |: z2 A,2 F,2 G,2 | %72
w: Lord. * * * *|||For He said,|
 G,>F, E,2 F,2 A,2 | D,2 D,2 E,2 F,2 | G,2 E,2 D,2 D,2 | A,2 A,2 A,2 A,,2 | D,2 D,2 z2 D,2 | %77
w: sure- ly they are my|chil- dren; * *||||
 D,2 D,D, F,2 D,2 | F,2 F,B, ^A,B, z2 | D,2 E,2 F,2 A,2 | G,2 E,2 D,2 D,2 | F,2 G,2 A,3 A, | %82
w: |||||
 A,2 A,,2 D,4 :| z8 | z8 | z8 | z8 | z4 A,2 A,2 | A,3 A, A,2 z2 | D,2 D,2 D,3 A,, | D,4 F,2 G,2 | %91
w: |||||||||
 A,2 A,,2 D,4 | z8 | z8 | z8 | z8 | z8 | C,2 D,2 E,2 E,2 | A,,4 z4 | z8 | z8 | z8 | z8 | %103
w: ||||||||||||
 E,2 E,2 E,2 !fermata!A,2 | B,2 A,2 G,2 F,2 | E,2 D,E, F,2 F,2 | !fermata!B,,2 A,,2 A,,2 A,,>A,, | %107
w: |||* That I am the|
 D,2 E,2 F,>G, A,2 | B,2 G,2 A,2 D,2 | B,2 G,2 A,2 D>D | D2 G,2 A,4 | D,4 z4 || z4 z2 D,2 | %113
w: Lord, which ex- er- cise|lov- ing- kind- ness,|judg- ment and right- eous-|ness * *|||
 D,2 D,2 G,2 G,2 | F,2 D,2 A,,2 A,,2 | D,2 D,2 A,2 A,2 | F,2 A,2 !fermata!A,2 z2 |: %117
w: ||||
 A,2 A,>A, D2 D,2 | D,2 E,2 F,3 D, | C,2 D,2 F,2 D,2 | A,2 A,2 D,4 :| %121
w: ||||

